Simply-Black-Circles/scalable/apps/gnome-mahjongg.svg

<svg xmlns="http://www.w3.org/2000/svg" width="48" height="48" viewBox="0 0 12.7 12.7"><path fill="#1a1a1a" d="M6.34.07a6.29 6.29 0 0 0-6.29 6.3 6.29 6.29 0 0 0 6.3 6.28 6.29 6.29 0 0 0 6.28-6.29A6.29 6.29 0 0 0 6.34.07zm-.01.94a5.4 5.4 0 0 1 5.4 5.4 5.4 5.4 0 0 1-5.4 5.41 5.4 5.4 0 0 1-5.41-5.4A5.4 5.4 0 0 1 6.32 1zm-.84.54a.47.47 0 0 0-.25.9l.2.1c.27.14.44.4.44.7v.64H4.02a.47.47 0 0 0-.47.57l.49 2.29c.05.22.24.38.46.38h1.38v3.55a.47.47 0 1 0 .95 0V7.13H8.2a.47.47 0 0 0 .46-.38l.49-2.29a.47.47 0 0 0-.46-.57H6.83v-.64c0-.65-.37-1.25-.95-1.54l-.21-.1a.48.48 0 0 0-.18-.06zM4.6 4.84h1.28v1.34h-1L4.6 4.84zm2.22 0H8.1L7.8 6.18h-.99V4.84z"/></svg>

<?xml version="1.0" encoding="UTF-8" standalone="no"?>
<svg
   xmlns:dc="http://purl.org/dc/elements/1.1/"
   xmlns:cc="http://creativecommons.org/ns#"
   xmlns:rdf="http://www.w3.org/1999/02/22-rdf-syntax-ns#"
   xmlns:svg="http://www.w3.org/2000/svg"
   xmlns="http://www.w3.org/2000/svg"
   xmlns:sodipodi="http://sodipodi.sourceforge.net/DTD/sodipodi-0.dtd"
   xmlns:inkscape="http://www.inkscape.org/namespaces/inkscape"
   width="48"
   height="48"
   viewBox="0 0 12.7 12.7"
   version="1.1"
   id="svg4"
   sodipodi:docname="gnome-mahjongg.svg"
   inkscape:version="0.92.4 (5da689c313, 2019-01-14)">
  <metadata
     id="metadata10">
    <rdf:RDF>
      <cc:Work
         rdf:about="">
        <dc:format>image/svg+xml</dc:format>
        <dc:type
           rdf:resource="http://purl.org/dc/dcmitype/StillImage" />
        <dc:title></dc:title>
      </cc:Work>
    </rdf:RDF>
  </metadata>
  <defs
     id="defs8" />
  <sodipodi:namedview
     pagecolor="#ffffff"
     bordercolor="#666666"
     borderopacity="1"
     objecttolerance="10"
     gridtolerance="10"
     guidetolerance="10"
     inkscape:pageopacity="0"
     inkscape:pageshadow="2"
     inkscape:window-width="1087"
     inkscape:window-height="480"
     id="namedview6"
     showgrid="false"
     inkscape:zoom="4.9166667"
     inkscape:cx="2.1355932"
     inkscape:cy="24"
     inkscape:window-x="0"
     inkscape:window-y="25"
     inkscape:window-maximized="0"
     inkscape:current-layer="svg4" />
  <path
     d="M 6.34,0.07 A 6.29,6.29 0 0 0 0.05,6.37 6.29,6.29 0 0 0 6.35,12.65 6.29,6.29 0 0 0 12.63,6.36 6.29,6.29 0 0 0 6.34,0.07 Z M 6.33,1.01 a 5.4,5.4 0 0 1 5.4,5.4 5.4,5.4 0 0 1 -5.4,5.41 A 5.4,5.4 0 0 1 0.92,6.42 5.4,5.4 0 0 1 6.32,1 Z M 5.49,1.55 a 0.47,0.47 0 0 0 -0.25,0.9 l 0.2,0.1 c 0.27,0.14 0.44,0.4 0.44,0.7 V 3.89 H 4.02 A 0.47,0.47 0 0 0 3.55,4.46 L 4.04,6.75 C 4.09,6.97 4.28,7.13 4.5,7.13 h 1.38 v 3.55 a 0.475,0.475 0 1 0 0.95,0 V 7.13 H 8.2 A 0.47,0.47 0 0 0 8.66,6.75 L 9.15,4.46 A 0.47,0.47 0 0 0 8.69,3.89 H 6.83 V 3.25 C 6.83,2.6 6.46,2 5.88,1.71 L 5.67,1.61 A 0.48,0.48 0 0 0 5.49,1.55 Z M 4.6,4.84 h 1.28 v 1.34 h -1 z m 2.22,0 H 8.1 L 7.8,6.18 H 6.81 V 4.84 Z"
     id="path2"
     inkscape:connector-curvature="0"
     style="fill:#1a1a1a" />
</svg>
